X:1795
T:Elvis Presley's Jig
O:england
N:IrTrad, 6/99
C:Paul de Grae
N:based on "Wooden Heart", from the film "G.I. Blues"
M:6/8
L:1/8
K:A
A2 B||:c2 c dcd|efe cBA|e2 d cde|dcd BAG|ABc d z B|
cBc dcd|efe cBA|eae cde|dcd BAG|ABc A3:||:
B2 c dcB|cBc ecA|f2 g agf|eaf ged|
cBc dcd|efe cBA|e2 d cde|dcd BAG|ABc A3:||
"variations - bar 1"
|Acc Add|   "or" |Ecc Edd|
"bar 14"
|g2 f e2 d|
"bar 15"
|caa daa|
<BODY><XMP>X: 1
T:Gloster Reel. WM001
M:4/4
L:1/8
S:Wm.Mittell,1799
R:Reel
A:Kent
N:D
K:G
d2BG dGBG|d2BG cAA2|]


